X: 18432
T: Hunting The Hare
R: slip jig
M: 9/8
K: Dmajor
F2A AFA d2A|Bcd ~e2d cBA|F2A AFA d2A|1 Bcd edc dBA:|2 Bcd edc d2e||
f2d def g2e|a2f efd cBA|fef def g2e|1 a2f edc d2e:|2 a2f edc dBA||

